img/on-3.svg

<svg width="44" height="40" viewBox="0 0 44 40" fill="none" xmlns="http://www.w3.org/2000/svg">
<rect width="40" height="40" rx="20" fill="#F5E9EA"/>
<path d="M32.0004 10.3965C26.7066 10.3965 22.4004 14.7031 22.4004 19.9965V24.1285C22.4004 24.1295 22.401 24.1304 22.401 24.1314V25.2045C22.401 26.2685 22.8169 27.2765 23.5609 28.0285L24.6649 29.1405L26.2649 29.6045H26.289C27.6089 29.6045 28.689 28.5245 28.689 27.2045V22.4845C28.689 21.1645 27.6089 20.0845 26.289 20.0845H26.2649L24.6649 20.5565L24.0004 21.2237V19.9965C24.0004 15.5852 27.5895 11.9965 32.0004 11.9965C36.4113 11.9965 40.0004 15.5852 40.0004 19.9965V21.2231L39.3364 20.5565L37.7364 20.0845H37.7124C36.3924 20.0845 35.3124 21.1645 35.3124 22.4845V27.2045C35.3124 28.5245 36.3924 29.6045 37.7124 29.6045H37.7364L39.3364 29.1405L40.4404 28.0285C41.1844 27.2765 41.6004 26.2685 41.6004 25.2045C41.6004 25.1223 41.6004 19.9143 41.6004 19.9965C41.6004 14.7031 37.2941 10.3965 32.0004 10.3965Z" fill="#DA2B36"/>
</svg>

<svg width="44" height="40" fill="none" xmlns="http://www.w3.org/2000/svg"><rect width="40" height="40" rx="20" fill="#F5E9EA"/><path d="M32 10.396c-5.293 0-9.6 4.307-9.6 9.6v4.133l.001.002v1.073c0 1.064.416 2.072 1.16 2.825l1.104 1.111 1.6.465h.024c1.32 0 2.4-1.08 2.4-2.4v-4.72c0-1.32-1.08-2.4-2.4-2.4h-.024l-1.6.471-.665.668v-1.227c0-4.412 3.59-8 8-8 4.411 0 8 3.588 8 8v1.226l-.664-.666-1.6-.473h-.024c-1.32 0-2.4 1.08-2.4 2.4v4.72c0 1.32 1.08 2.4 2.4 2.4h.024l1.6-.463 1.104-1.112a4.002 4.002 0 0 0 1.16-2.825v-5.207c0-5.294-4.306-9.6-9.6-9.6Z" fill="#DA2B36"/></svg>
